humanity-icon-theme/Humanity-Dark/apps/22/nm-vpn-connecting03.svg

<?xml version="1.0" encoding="UTF-8" standalone="no"?>
<!-- Created with Inkscape (http://www.inkscape.org/) -->

<svg
   xmlns:svg="http://www.w3.org/2000/svg"
   xmlns="http://www.w3.org/2000/svg"
   version="1.0"
   width="22"
   height="22"
   id="svg3315">
  <defs
     id="defs3317" />
  <path
     d="M 19.305871,6.9906443 14.973391,9.492003"
     id="path3281"
     style="fill:none;stroke:#878787;stroke-width:1px;stroke-linecap:round;stroke-linejoin:miter;stroke-opacity:1" />
  <path
     d="M 17.874612,5.1253914 14.337156,8.662846"
     id="path2631"
     style="opacity:0.75;fill:none;stroke:#878787;stroke-width:1px;stroke-linecap:round;stroke-linejoin:miter;stroke-opacity:1" />
  <path
     d="M 16.009359,3.6941323 13.508,8.026613"
     id="path3405"
     style="opacity:0.6;fill:none;stroke:#878787;stroke-width:1px;stroke-linecap:round;stroke-linejoin:miter;stroke-opacity:1" />
  <path
     d="M 13.837226,2.7944053 12.542427,7.626659"
     id="path3409"
     style="opacity:0.5;fill:none;stroke:#878787;stroke-width:1px;stroke-linecap:round;stroke-linejoin:miter;stroke-opacity:1" />
  <path
     d="m 11.506239,2.487525 0,5.002717"
     id="path3417"
     style="opacity:0.4;fill:none;stroke:#878787;stroke-width:1px;stroke-linecap:round;stroke-linejoin:miter;stroke-opacity:1" />
  <path
     d="M 9.1752528,2.7944052 10.470052,7.626659"
     id="path3421"
     style="opacity:0.3;fill:none;stroke:#878787;stroke-width:1px;stroke-linecap:round;stroke-linejoin:miter;stroke-opacity:1" />
  <path
     d="M 7.0031191,3.6941324 9.5044778,8.026613"
     id="path3425"
     style="opacity:0.2;fill:none;stroke:#878787;stroke-width:1px;stroke-linecap:round;stroke-linejoin:miter;stroke-opacity:1" />
  <path
     d="m 5.1378669,5.125391 3.537455,3.537456"
     id="path3429"
     style="opacity:0.15;fill:none;stroke:#878787;stroke-width:1px;stroke-linecap:round;stroke-linejoin:miter;stroke-opacity:1" />
  <path
     d="m 2.5,11.493764 5.0027179,0"
     id="path3437"
     style="opacity:0.05;fill:none;stroke:#878787;stroke-width:1px;stroke-linecap:round;stroke-linejoin:miter;stroke-opacity:1" />
  <path
     d="M 8.0371263,9.490871 3.7066073,6.9906448"
     id="path2775"
     style="fill:none;stroke:#878787;stroke-width:1px;stroke-linecap:round;stroke-linejoin:miter;stroke-opacity:1" />
  <path
     d="M 7.6369469,10.456991 2.8068801,9.162778"
     id="path2777"
     style="opacity:0.75;fill:none;stroke:#878787;stroke-width:1px;stroke-linecap:round;stroke-linejoin:miter;stroke-opacity:1" />
  <path
     d="M 7.5004536,11.493765 2.5,11.493764"
     id="path2779"
     style="opacity:0.6;fill:none;stroke:#878787;stroke-width:1px;stroke-linecap:round;stroke-linejoin:miter;stroke-opacity:1" />
  <path
     d="M 7.6369477,12.530538 2.8068799,13.82475"
     id="path2781"
     style="opacity:0.5;fill:none;stroke:#878787;stroke-width:1px;stroke-linecap:round;stroke-linejoin:miter;stroke-opacity:1" />
  <path
     d="M 8.0371268,13.496657 3.7066069,15.996883"
     id="path2783"
     style="opacity:0.4;fill:none;stroke:#878787;stroke-width:1px;stroke-linecap:round;stroke-linejoin:miter;stroke-opacity:1" />
  <path
     d="M 8.6737218,14.326282 5.1378659,17.862138"
     id="path2785"
     style="opacity:0.3;fill:none;stroke:#878787;stroke-width:1px;stroke-linecap:round;stroke-linejoin:miter;stroke-opacity:1" />
  <path
     d="M 9.5033468,14.962876 7.0031192,19.293395"
     id="path2787"
     style="opacity:0.2;fill:none;stroke:#878787;stroke-width:1px;stroke-linecap:round;stroke-linejoin:miter;stroke-opacity:1" />
  <path
     d="M 10.469466,15.363056 9.1752518,20.193122"
     id="path2789"
     style="opacity:0.15;fill:none;stroke:#878787;stroke-width:1px;stroke-linecap:round;stroke-linejoin:miter;stroke-opacity:1" />
  <path
     d="m 13.509132,14.962876 2.500225,4.330519"
     id="path2793"
     style="opacity:0.05;fill:none;stroke:#878787;stroke-width:1px;stroke-linecap:round;stroke-linejoin:miter;stroke-opacity:1" />
  <path
     d="m 11.506241,15.499547 0,5.000453"
     id="path2841"
     style="fill:none;stroke:#878787;stroke-width:0.99999994px;stroke-linecap:round;stroke-linejoin:miter;stroke-opacity:1" />
  <path
     d="m 12.543013,15.363053 1.294214,4.830067"
     id="path2843"
     style="opacity:0.75;fill:none;stroke:#878787;stroke-width:0.99999994px;stroke-linecap:round;stroke-linejoin:miter;stroke-opacity:1" />
  <path
     d="m 13.509133,14.962874 2.500227,4.330519"
     id="path2845"
     style="opacity:0.6;fill:none;stroke:#878787;stroke-width:0.99999994px;stroke-linecap:round;stroke-linejoin:miter;stroke-opacity:1" />
  <path
     d="m 14.338758,14.326278 3.535854,3.535855"
     id="path2847"
     style="opacity:0.5;fill:none;stroke:#878787;stroke-width:0.99999994px;stroke-linecap:round;stroke-linejoin:miter;stroke-opacity:1" />
  <path
     d="m 14.975351,13.496654 4.33052,2.500226"
     id="path2849"
     style="opacity:0.4;fill:none;stroke:#878787;stroke-width:0.99999994px;stroke-linecap:round;stroke-linejoin:miter;stroke-opacity:1" />
  <path
     d="m 15.375532,12.530533 4.830067,1.294214"
     id="path2851"
     style="opacity:0.3;fill:none;stroke:#878787;stroke-width:0.99999994px;stroke-linecap:round;stroke-linejoin:miter;stroke-opacity:1" />
  <path
     d="m 15.512025,11.493761 5.000453,1e-6"
     id="path2853"
     style="opacity:0.2;fill:none;stroke:#878787;stroke-width:0.99999994px;stroke-linecap:round;stroke-linejoin:miter;stroke-opacity:1" />
  <path
     d="M 15.37553,10.456987 20.205597,9.162775"
     id="path2855"
     style="opacity:0.15;fill:none;stroke:#878787;stroke-width:0.99999994px;stroke-linecap:round;stroke-linejoin:miter;stroke-opacity:1" />
  <path
     d="M 13.509131,8.02465 16.009358,3.6941302"
     id="path2859"
     style="opacity:0.05;fill:none;stroke:#878787;stroke-width:0.99999994px;stroke-linecap:round;stroke-linejoin:miter;stroke-opacity:1" />
</svg>

<?xml version="1.0" encoding="UTF-8" standalone="no"?>
<!-- Created with Inkscape (http://www.inkscape.org/) -->
<svg id="svg3315" xmlns="http://www.w3.org/2000/svg" height="22" width="22" version="1.0">
 <path id="path3281" style="stroke:#878787;stroke-linecap:round;stroke-width:1px;fill:none" d="m19.306 6.9906-4.333 2.5014"/>
 <path id="path2631" style="opacity:.75;stroke:#878787;stroke-linecap:round;stroke-width:1px;fill:none" d="m17.875 5.1254-3.538 3.5374"/>
 <path id="path3405" style="opacity:.6;stroke:#878787;stroke-linecap:round;stroke-width:1px;fill:none" d="m16.009 3.6941-2.501 4.3325"/>
 <path id="path3409" style="opacity:.5;stroke:#878787;stroke-linecap:round;stroke-width:1px;fill:none" d="m13.837 2.7944-1.295 4.8323"/>
 <path id="path3417" style="opacity:.4;stroke:#878787;stroke-linecap:round;stroke-width:1px;fill:none" d="m11.506 2.4875v5.0027"/>
 <path id="path3421" style="opacity:.3;stroke:#878787;stroke-linecap:round;stroke-width:1px;fill:none" d="m9.1753 2.7944 1.2947 4.8323"/>
 <path id="path3425" style="opacity:.2;stroke:#878787;stroke-linecap:round;stroke-width:1px;fill:none" d="m7.0031 3.6941 2.5014 4.3325"/>
 <path id="path3429" style="opacity:.15;stroke:#878787;stroke-linecap:round;stroke-width:1px;fill:none" d="m5.1379 5.1254 3.5375 3.5375"/>
 <path id="path3437" style="opacity:.05;stroke:#878787;stroke-linecap:round;stroke-width:1px;fill:none" d="m2.5 11.494h5.0027"/>
 <path id="path2775" style="stroke:#878787;stroke-linecap:round;stroke-width:1px;fill:none" d="m8.0371 9.4909-4.3305-2.5003"/>
 <path id="path2777" style="opacity:.75;stroke:#878787;stroke-linecap:round;stroke-width:1px;fill:none" d="m7.6369 10.457-4.83-1.2942"/>
 <path id="path2779" style="opacity:.6;stroke:#878787;stroke-linecap:round;stroke-width:1px;fill:none" d="m7.5005 11.494h-5.0005"/>
 <path id="path2781" style="opacity:.5;stroke:#878787;stroke-linecap:round;stroke-width:1px;fill:none" d="m7.6369 12.531-4.83 1.294"/>
 <path id="path2783" style="opacity:.4;stroke:#878787;stroke-linecap:round;stroke-width:1px;fill:none" d="m8.0371 13.497-4.3305 2.5"/>
 <path id="path2785" style="opacity:.3;stroke:#878787;stroke-linecap:round;stroke-width:1px;fill:none" d="m8.6737 14.326-3.5358 3.536"/>
 <path id="path2787" style="opacity:.2;stroke:#878787;stroke-linecap:round;stroke-width:1px;fill:none" d="m9.5033 14.963-2.5002 4.33"/>
 <path id="path2789" style="opacity:.15;stroke:#878787;stroke-linecap:round;stroke-width:1px;fill:none" d="m10.469 15.363-1.2937 4.83"/>
 <path id="path2793" style="opacity:.05;stroke:#878787;stroke-linecap:round;stroke-width:1px;fill:none" d="m13.509 14.963 2.5002 4.3305"/>
 <path id="path2841" style="stroke:#878787;stroke-linecap:round;stroke-width:1px;fill:none" d="m11.506 15.5v5.0005"/>
 <path id="path2843" style="opacity:.75;stroke:#878787;stroke-linecap:round;stroke-width:1px;fill:none" d="m12.543 15.363 1.2942 4.8301"/>
 <path id="path2845" style="opacity:.6;stroke:#878787;stroke-linecap:round;stroke-width:1px;fill:none" d="m13.509 14.963 2.5002 4.3305"/>
 <path id="path2847" style="opacity:.5;stroke:#878787;stroke-linecap:round;stroke-width:1px;fill:none" d="m14.339 14.326 3.5359 3.5359"/>
 <path id="path2849" style="opacity:.4;stroke:#878787;stroke-linecap:round;stroke-width:1px;fill:none" d="m14.975 13.497 4.3305 2.5002"/>
 <path id="path2851" style="opacity:.3;stroke:#878787;stroke-linecap:round;stroke-width:1px;fill:none" d="m15.376 12.531 4.8301 1.2942"/>
 <path id="path2853" style="opacity:.2;stroke:#878787;stroke-linecap:round;stroke-width:1px;fill:none" d="m15.512 11.494 5.0005 0.000001"/>
 <path id="path2855" style="opacity:.15;stroke:#878787;stroke-linecap:round;stroke-width:1px;fill:none" d="m15.376 10.457 4.83-1.2942"/>
 <path id="path2859" style="opacity:.05;stroke:#878787;stroke-linecap:round;stroke-width:1px;fill:none" d="m13.509 8.0246 2.5-4.3305"/>
</svg>
